X:1
T:Crux fidelis - Anerio
T:#
%%score [ 1 2 3 4 ]
L:1/8
Q:1/4=180
M:none
K:C
V:1 treble nm="Soprano" snm="S"
V:2 treble nm="Alto" snm="A"
V:3 treble-8 nm="Tenor" snm="T"
V:4 bass nm="Bass" snm="B"
V:1
"^Crux fidelis""^Felice Anerio\n(c. 1560-1614)" z8 A8- | A4 A4 A8- | A8 G8 | c8 c8 | (d6 e2 f8-) | %5
w: Crux|* fi- de\-|* lis,|in- ter|o\- * *|
[M:4/2] (f4 e2 d2 e2 d2 d4- | d2 c2 c8 B4) | c8 (e6 f2 | g8) f4 e4- | e4 e4 d4 c4 | e8 z8 | %11
w: ||mnes ar\- *|* bor u\-|* na no- bi-|lis,|
 z8 z4 f4- | f4 e4 d8 | c8 z8 | e8 d8 | c8 d4 d4- | (d2 c2 c8) B4 | c8 z8 | z16 | z16 | z8 z4 d4- | %21
w: ar\-|* bor u-|na,|ar- bor|u- na no\-|* * * bi-|lis:|||fron\-|
 d2 e2 c4 A2 (d3 cBA | GABG A2) A2 B4 z4 | z8 d8 | e4 c2 A2 (dcBAGABG | c3 B A2) A2 B8 | z4 e8 e4 | %27
w: * de, flo- re, ger\- * * *|* * * * * mi- ne,|fron-|de, flo- re, ger\- * * * * * * *|* * * mi- ne.|Dul- ce|
 d8 e8- | e8 z4 e4- | e4 e4 d8 | ^c16 | z8 d8- | d8 e8 | c16 | A8 c8- | (c4 B2 A2 B4) B4 | ^c8 z8 | %37
w: li- gnum,|* dul\-|* ces cla-|vos,|dul\-|* ce|pon-|dus su\-|* * * * sti-|net.|
 z4 e8 e4 | d8 e8- | e8 z4 e4- | e4 e4 d8 | ^c16 | z8 d8- | d8 e8 | c16 | %45
w: Dul- ce|li- gnum,|* dul\-|* ces cla-|vos,|dul\-|* ce|pon-|
[Q:1/4=176] A8[Q:1/4=169] (c8- | %46
w: dus su\-|
[Q:1/4=164] c4[Q:1/4=162] B2[Q:1/4=160] A2[Q:1/4=158] B4)[Q:1/4=155] B4 |[Q:1/4=154] ^c16 |] %48
w: * * * * sti-|net.|
V:2
 E12 E4 | E8 C8 | c12 B4 | (A4 G2 F2 E6 DC | G8 A8-) |[M:4/2] (A4 G2 F2 G8 | C8) (D8 | G8) z4 c4- | %8
w: Crux fi-|de- lis,|in- ter|o\- * * * * *|||* mnes|* ar\-|
 c4 B4 A8 | E8 z4 A4- | A4 G4 F8 | C8 D4 A4 | (A6 G2 F8) | z4 (A6 B2 c4- | c4) B4 B4 A4 | %15
w: * bor u-|na, ar\-|* bor u-|na no- bi-|lis, * *|ar\- * *|* bor u- na|
 (A6 G2 F4) G4 | (A4 G2 F2 G8) | z4 E4 G4 A4- | A4 G4 _B4 (A4- | A2 G2 G4) (F8 | E8) ^F8 | %21
w: no\- * * bi-|lis: * * *|nul- la sil\-|* va ta- lem|* * * pro\-|* fert,|
 G4 A2 F4 D2 (G3 F | ED G4) ^F2 G4 z4 | z4 A6 B4 G2- | G2 E2 A4 B6 G2- | G2 A2 ^F3 F G8 | %26
w: fron- de, flo- re, ger\- *|* * * mi- ne,|fron- de, flo\-|* re, fron- de, flo\-|* re, ger- mi- ne.|
 z4 G8 ^G4 | A8 ^G8 | z4 A8 A4 | A8 A8 | A16- | A16 | B8 G8 | E8 (A8- | A4 G2 F2 G4) G4 | E16- | %36
w: Dul- ce|li- gnum,|dul- ces|cla- vos,|dul\-||ce pon-|dus su\-|* * * * sti-|net.|
 E8 z8 | z4 A8 ^G4 | A8 ^G8 | z4 A8 A4 | A16 | A16 | A16 | B8 G8 | E8 (A8- | A4 G2 F2 G4) G4 | %46
w: |Dul- ce|li- gnum,|dul- ces|cla-|vos,|dul-|ce pon-|dus su\-|* * * * sti-|
 E16- | E16 |] %48
w: net.||
V:3
 z16 | z4 e8 e4 | e16- | e8 c4 c4- | c4 B4 (A6 B2) |[M:4/2][K:treble-8] c8 G4 g4- | g4 ^f4 g8 | %7
w: |Crux fi-|de\-|* lis, in\-|* ter o\- *|* mnes, in\-|* ter o-|
 e16 | z8 (A6 B2 | c4) B4 A8 | (B6 c2 d4) a4- | a4 g4 f8 | c8 d4 d4 | e8 (e6 f2 | g12) f4 | %15
w: mnes|ar\- *|* bor u-|na, * * ar\-|* bor u-|na no- bi-|lis, ar\- *|* bor|
 f4 e4 (d6 e2) | f4 e4 d8 | c8 d4 f4- | f4 e4 d8 | c4 (e6 d2 d4- | d4 ^c4) d8 | z16 | z4 d6 e2 c4 | %23
w: u- na no\- *|* bi- lis:|nul- la sil\-|* va ta-|lem pro\- * *|* * fert,||fron- de, flo-|
 A2 (a3 gfe ^f4) g4 | e4 z4 d4 e4 | c2 A2 d3 d G8 | z4 c8 B4 | A8 B8 | ^c16 | e8 f8 | e16 | %31
w: re, ger\- * * * * mi-|ne, fron- de,|flo- re, ger- mi- ne.|Dul- ce|li- gnum,|dul-|ces cla-|vos,|
 (^f6 g2 a4) d4- | d4 (g2 f2 e2 d2 c4) | g8 z8 | (c12 B2 A2) | (^G2 ^FG A8) G4 | A8 z8 | c12 B4 | %38
w: dul\- * * ce|* pon\- * * * *|dus|su\- * *|* * * * sti-|net.|Dul- ce|
 A8 B8 | ^c16 | e8 f8 | e16 | (^f6 g2 a4) d4- | d4 (g2 f2 e2 d2 c4) | g8 z8 | (c12 B2 A2 | %46
w: li- gnum,|dul-|ces cla-|vos,|dul\- * * ce|* pon\- * * * *|dus|su\- * *|
 ^G2 ^FG A8) G4 | A16 |] %48
w: * * * * sti-|net.|
V:4
 z8 A,8- | A,4 A,4 A,8- | A,8 E,8 | A,16 | G,8 (D,2 E,2 F,2 G,2) | %5
w: Crux|* fi- de\-|* lis,|in-|ter o\- * * *|
[M:4/2] (A,2 B,2 C6 B,2 B,2 A,G, | A,8 G,8) | C,16 | z8 z4 A,4- | A,4 G,4 F,8 | E,8 (D,6 E,2 | %11
w: ||mnes|ar\-|* bor u-|na, ar\- *|
 F,4) E,4 D,8 | A,8 _B,4 B,4 | A,16 | (E,6 F,2 G,4) D,4 | A,8 _B,8 | A,4 C4 G,8 | A,8 G,4 F,4- | %18
w: * bor u-|na no- bi-|lis,|ar\- * * bor|u- na|no- bi- lis:|nul- la sil\-|
 F,4 C,4 (D,2 E,2 F,2 G,2 | A,2 B,2 C4) D8 | A,8 D,8 | z16 | z8 G,4 A,4 | %23
w: * va ta\- * * *|* * * lem|pro- fert,||fron- de,|
 F,4 D,2 (D3 CB,A,G,A,B,G,) | (C3 B, A,2) A,2 G,8 | z16 | C,8 E,8 | F,8 E,8 | A,16 | ^C8 D8 | %30
w: flo- re, ger\- * * * * * * *|* * * mi- ne.||Dul- ce|li- gnum,|dul-|ces cla-|
 A,16 | D,8 ^F,8 | G,8 C,8- | C,8 (F,8- | F,4 E,2 D,2 C,6 D,2) | E,12 E,4 | A,,8 z8 | A,8 E,8 | %38
w: vos,|dul- ce|pon- dus|* su\-||* sti-|net.|Dul- ce|
 F,8 E,8 | A,16 | ^C8 D8 | A,16 | D,8 ^F,8 | G,8 C,8- | C,8 (F,8- | F,4 E,2 D,2 C,6 D,2 | %46
w: li- gnum,|dul-|ces cla-|vos,|dul- ce|pon- dus|* su\-||
 E,12) E,4 | A,,16 |] %48
w: * sti-|net.|

